X:43
T:Cooper's Kicker
M:C|
L:1/8
C:© Paul Gitlitz 1998
R:Reel
B:Giblitz Fancy
N:Written to complete Andrea's medley.
K:D
"D(6)"DAAA "(F#m7)"FAAA|"(G6)"dAcA "(A7)"BAFA|"(D6)"DAAA "(Bm7)"FAAA|"(Em)"dAFA "A7"E2AA|!
"D(6)"DAAA "(F#m7)"FAAA|"(G6)"dAcA "(A7)"BAef|"G"gefd "(Em7)"edcB|1"A7"ABce "D(6)"d3A:|2"A7"ABce "D(6)"d2de|!
|:"D6"(fd)ed (fd)ed|(fd)ed "G"g3e|"D6"(fd)ed (fd)ed|"A7"(cdec "D"d3e|!
"D6"(fd)ed (fd)ed|(fd)ed "G"g3e|"G"gefd "Em7"edcB|1"A7"ABce "D6"d3A:|2"A7"ABce "D6"d4|]
